src/Icon/svgs/compass.svg

<svg width="24" height="24" viewBox="0 0 24 24" fill="none" xmlns="http://www.w3.org/2000/svg">
<path fill-rule="evenodd" clip-rule="evenodd" d="M10.6492 13.3508L14.2513 14.2513L13.3508 10.6492L10.6492 13.3508ZM12 22C6.47715 22 2 17.5228 2 12C2 6.47715 6.47715 2 12 2C17.5228 2 22 6.47715 22 12C22 17.5228 17.5228 22 12 22ZM12 20C16.4183 20 20 16.4183 20 12C20 7.58172 16.4183 4 12 4C7.58172 4 4 7.58172 4 12C4 16.4183 7.58172 20 12 20ZM16.5958 15.8682C16.4618 16.404 15.9189 16.7297 15.3831 16.5958L9 15L7.40423 8.6169C7.36442 8.45766 7.36442 8.29107 7.40423 8.13183C7.53817 7.59604 8.08111 7.27028 8.6169 7.40423L15 9L16.5958 15.3831C16.6356 15.5423 16.6356 15.7089 16.5958 15.8682Z" fill="#1B1C1D"/>
</svg>

<svg xmlns="http://www.w3.org/2000/svg" width="24" height="24" fill="none"  xmlns:v="https://vecta.io/nano"><path fill-rule="evenodd" d="M10.649 13.351l3.602.901-.901-3.602-2.702 2.702zM12 22C6.477 22 2 17.523 2 12S6.477 2 12 2s10 4.477 10 10-4.477 10-10 10zm0-2a8 8 0 1 0 0-16 8 8 0 1 0 0 16zm4.596-4.132a1 1 0 0 1-1.213.728L9 15 7.404 8.617a1 1 0 0 1 1.213-1.213L15 9l1.596 6.383a1 1 0 0 1 0 .485z" fill="#1b1c1d"/></svg>
